public/favicon.svg

<svg xmlns="http://www.w3.org/2000/svg" width="16" height="16" viewBox="0 0 16 16"><rect width="16" height="16"/><path d="M12.615,13.169l-.17-9.622.154.017L8.263,13.9H7.737L3.4,3.564l.154-.017-.17,9.622,2.158.322V13.9H.562v-.357l1.905-.374.34-9.537L.716,3.292V2.9H4.251l3.894,9.538h-.29L11.749,2.9h3.535v.392l-2.091.34.34,9.537,1.9.374V13.9H10.457v-.409Z" style="fill:#fff"/><path d="M8,2.436S9.136,3.875,8,3.875,8,2.436,8,2.436" style="fill:#fff"/><path d="M8,2.436S6.983,3.961,6.632,2.88,8,2.436,8,2.436" style="fill:#fff"/><path d="M8,2.436S9.719,1.8,9.368,2.88,8,2.436,8,2.436" style="fill:#fff"/><path d="M8,2.436s-1.765-.5-.846-1.164S8,2.436,8,2.436" style="fill:#fff"/><path d="M8,2.436S7.927.6,8.846,1.272,8,2.436,8,2.436" style="fill:#fff"/></svg>

<svg xmlns="http://www.w3.org/2000/svg" width="16" height="16" viewBox="0 0 16 16"><path d="M0 0h16v16H0z"/><path d="M12.62 13.17l-.17-9.62.15.01L8.26 13.9h-.52L3.4 3.56l.15-.01-.17 9.62 2.16.32v.41H.56v-.36l1.9-.37.35-9.54L.7 3.3V2.9h3.54l3.9 9.54h-.3l3.9-9.54h3.53v.4l-2.09.33.34 9.54 1.9.37v.36h-4.97v-.4z" fill="#fff"/><path d="M8 2.44s1.14 1.44 0 1.44 0-1.44 0-1.44" fill="#fff"/><path d="M8 2.44s-1.02 1.52-1.37.44S8 2.44 8 2.44M8 2.44s1.72-.64 1.37.44S8 2.44 8 2.44" fill="#fff"/><path d="M8 2.44s-1.76-.5-.85-1.17S8 2.44 8 2.44" fill="#fff"/><path d="M8 2.44S7.93.6 8.85 1.27 8 2.44 8 2.44" fill="#fff"/></svg>
